public/flags/UY.svg

<svg fill="none" height="53" viewBox="0 0 61 53" width="61" xmlns="http://www.w3.org/2000/svg" xmlns:xlink="http://www.w3.org/1999/xlink"><mask id="a" height="43" maskUnits="userSpaceOnUse" width="59" x="1" y="3"><rect fill="#fff" height="41.4393" rx="3.7125" stroke="#fff" stroke-width="1.06071" width="57.9393" x="1.53036" y="3.53036"/></mask><rect fill="#fff" height="41.4393" rx="3.7125" stroke="#f5f5f5" stroke-width="1.06071" width="57.9393" x="1.53036" y="3.53036"/><g clip-rule="evenodd" fill-rule="evenodd" mask="url(#a)"><path d="m60 8.66663h-30.9048v5.66657h30.9048zm-30.9048 11.33327v5.6667h30.9048v-5.6667zm0 11.3334h-28.0952v5.6666h59v-5.6666zm-28.0952 14.1667v-2.8334h59v2.8334z" fill="#0e4dc5"/><path d="m15.0477 22.8078-1.8755 2.8233-.4751-3.3644-2.90452 1.7231 1.01952-3.2391-3.35827.2816 2.31212-2.4723-3.14681-1.2157 3.14681-1.2158-2.31212-2.4723 3.35827.2816-1.01952-3.2391 2.90452 1.7231.4751-3.36443 1.8755 2.82343 1.8755-2.82343.4751 3.36443 2.9045-1.7231-1.0194 3.2391 3.3582-.2816-2.3121 2.4723 3.1468 1.2158-3.1468 1.2157 2.3121 2.4723-3.3582-.2816 1.0194 3.2391-2.9045-1.7231-.4751 3.3644zm0-.0544c2.9623 0 5.3636-2.4217 5.3636-5.4091 0-2.9873-2.4013-5.4091-5.3636-5.4091-2.9622 0-5.36363 2.4218-5.36363 5.4091 0 2.9874 2.40143 5.4091 5.36363 5.4091zm4.2143-5.5867c0 2.3472-1.8868 4.25-4.2143 4.25s-4.2143-1.9028-4.2143-4.25 1.8868-4.25 4.2143-4.25 4.2143 1.9028 4.2143 4.25z" fill="#fed443"/></g></svg>

<svg width="61" height="53" viewBox="0 0 61 53" fill="none" xmlns="http://www.w3.org/2000/svg">
<rect x="1.53036" y="3.53036" width="57.9393" height="41.4393" rx="3.7125" fill="white" stroke="#F5F5F5" stroke-width="1.06071"/>
<mask id="mask0" mask-type="alpha" maskUnits="userSpaceOnUse" x="1" y="3" width="59" height="43">
<rect x="1.53036" y="3.53036" width="57.9393" height="41.4393" rx="3.7125" fill="white" stroke="white" stroke-width="1.06071"/>
</mask>
<g mask="url(#mask0)">
<path fill-rule="evenodd" clip-rule="evenodd" d="M60 8.66663H29.0952V14.3332H60V8.66663ZM29.0952 19.9999V25.6666H60V19.9999H29.0952ZM29.0952 31.3333H1V36.9999H60V31.3333H29.0952V31.3333ZM1 45.5V42.6666H60V45.5H1Z" fill="#0E4DC5"/>
<path fill-rule="evenodd" clip-rule="evenodd" d="M15.0477 22.8078L13.1722 25.6311L12.6971 22.2667L9.79258 23.9898L10.8121 20.7507L7.45383 21.0323L9.76595 18.56L6.61914 17.3443L9.76595 16.1285L7.45383 13.6562L10.8121 13.9378L9.79258 10.6987L12.6971 12.4218L13.1722 9.05737L15.0477 11.8808L16.9232 9.05737L17.3983 12.4218L20.3028 10.6987L19.2834 13.9378L22.6416 13.6562L20.3295 16.1285L23.4763 17.3443L20.3295 18.56L22.6416 21.0323L19.2834 20.7507L20.3028 23.9898L17.3983 22.2667L16.9232 25.6311L15.0477 22.8078ZM15.0477 22.7534C18.01 22.7534 20.4113 20.3317 20.4113 17.3443C20.4113 14.357 18.01 11.9352 15.0477 11.9352C12.0855 11.9352 9.68407 14.357 9.68407 17.3443C9.68407 20.3317 12.0855 22.7534 15.0477 22.7534ZM19.262 17.1667C19.262 19.5139 17.3752 21.4167 15.0477 21.4167C12.7202 21.4167 10.8334 19.5139 10.8334 17.1667C10.8334 14.8195 12.7202 12.9167 15.0477 12.9167C17.3752 12.9167 19.262 14.8195 19.262 17.1667Z" fill="#FED443"/>
</g>
</svg>
